_/img/starknet-logo-white.svg

<svg height="40" viewBox="0 0 179 43" fill="none" xmlns="http://www.w3.org/2000/svg"><path d="M21.0409 42.3198C9.71547 42.3198 0.534588 33.1389 0.534588 21.8135C0.534588 10.488 9.71547 1.30714 21.0409 1.30714C32.3663 1.30714 41.5478 10.488 41.5478 21.8135C41.5478 33.1389 32.3663 42.3198 21.0409 42.3198Z" fill="#0C0C4F" stroke="url(#paint0_linear_789_81084)" stroke-width="1.01267"></path><path fill-rule="evenodd" clip-rule="evenodd" d="M12.2195 17.1014L12.7132 15.5761C12.8136 15.2659 13.0584 15.0245 13.3698 14.9293L14.9025 14.4579C15.1147 14.3931 15.1164 14.0938 14.906 14.0256L13.3801 13.5319C13.0705 13.4315 12.8291 13.1867 12.7333 12.8753L12.2625 11.3425C12.1977 11.1309 11.8984 11.1286 11.8302 11.3397L11.3364 12.865C11.2361 13.1746 10.9912 13.416 10.6799 13.5118L9.14713 13.9826C8.93496 14.0479 8.93267 14.3467 9.14369 14.4149L10.6696 14.9086C10.9792 15.009 11.2206 15.2544 11.3164 15.5658L11.7872 17.0979C11.8519 17.3101 12.1513 17.3124 12.2195 17.1014Z" fill="#FAFAFA"></path><path fill-rule="evenodd" clip-rule="evenodd" d="M36.4461 16.2133C35.8142 15.5067 34.828 15.1088 33.8693 14.9457C32.9028 14.789 31.8896 14.8036 30.9355 14.973C29.0051 15.2996 27.2514 16.0989 25.7219 17.085C24.9276 17.5689 24.2502 18.1289 23.5484 18.6991C23.2103 18.9875 22.902 19.2947 22.5809 19.5974L21.7036 20.4703C20.7504 21.4667 19.8108 22.3742 18.9017 23.1265C17.989 23.8753 17.1356 24.444 16.2947 24.8411C15.4542 25.2403 14.5549 25.475 13.3828 25.5126C12.221 25.5536 10.8464 25.3439 9.376 24.9978C7.89774 24.6532 6.34543 24.162 4.61075 23.7394C5.21602 25.4186 6.12749 26.9025 7.2977 28.2589C8.48164 29.5918 9.96003 30.8067 11.8592 31.6057C13.7309 32.4224 16.0831 32.7155 18.2825 32.2732C20.4877 31.8488 22.4229 30.8284 23.9871 29.6482C25.5553 28.456 26.8241 27.0979 27.8937 25.6861C28.189 25.296 28.3452 25.0777 28.5589 24.7728L29.1494 23.898C29.5599 23.3568 29.9335 22.7407 30.3397 22.2046C31.1362 21.0817 31.9214 19.9602 32.8339 18.9269C33.2932 18.4028 33.7773 17.9015 34.349 17.4198C34.6342 17.1846 34.9423 16.9545 35.2835 16.7472C35.6299 16.5236 35.9957 16.3486 36.4461 16.2133Z" fill="url(#paint1_linear_789_81084)"></path><path fill-rule="evenodd" clip-rule="evenodd" d="M36.4462 16.2134C35.7673 14.5004 34.5054 13.0585 32.8115 11.9945C31.1279 10.9422 28.7895 10.4052 26.4724 10.863C25.3277 11.0844 24.2187 11.5106 23.2454 12.0782C22.2766 12.6436 21.4084 13.3241 20.6569 14.0543C20.2817 14.4205 19.9411 14.8026 19.6028 15.1869L18.7258 16.3049L17.3714 18.1046C15.6447 20.4202 13.7853 23.1339 10.734 23.938C7.73838 24.7274 6.43914 24.0283 4.61086 23.7395C4.94515 24.6026 5.35925 25.4407 5.92063 26.1781C6.47155 26.9304 7.12227 27.637 7.9313 28.2426C8.34015 28.5335 8.7718 28.8206 9.25121 29.0641C9.72843 29.2994 10.2431 29.5064 10.7924 29.6623C11.8851 29.9618 13.1152 30.0667 14.3063 29.9056C15.498 29.7466 16.637 29.369 17.6326 28.8674C18.6355 28.3706 19.5092 27.7656 20.2893 27.127C21.8401 25.8392 23.0464 24.4162 24.0653 22.9778C24.5778 22.2587 25.043 21.5259 25.4733 20.793L25.9797 19.9205C26.1345 19.6654 26.2911 19.4088 26.4502 19.1698C27.0918 18.2095 27.7194 17.4395 28.4817 16.8616C29.2335 16.2687 30.2802 15.8307 31.679 15.7289C33.072 15.626 34.6801 15.8162 36.4462 16.2134Z" fill="#FAFAFA"></path><path fill-rule="evenodd" clip-rule="evenodd" d="M28.91 30.4455C28.91 31.7036 29.9304 32.724 31.1885 32.724C32.4466 32.724 33.4658 31.7036 33.4658 30.4455C33.4658 29.1874 32.4466 28.167 31.1885 28.167C29.9304 28.167 28.91 29.1874 28.91 30.4455Z" fill="url(#paint2_linear_789_81084)"></path><path d="M175.837 16.2207V13.92C175.837 13.8288 175.763 13.7549 175.672 13.7549H162.563C162.472 13.7549 162.398 13.8288 162.398 13.92V16.2207H167.726V31.1045H170.509V16.2207H175.837Z" fill="white"></path><path d="M148.697 13.7549C148.606 13.7549 148.532 13.8288 148.532 13.92V30.9393C148.532 31.0305 148.606 31.1045 148.697 31.1045H159.728C159.82 31.1045 159.894 31.0305 159.894 30.9393V28.6631H151.315V23.2105H158.403V20.8179H151.315V16.1963H159.283V13.92C159.283 13.8288 159.209 13.7549 159.117 13.7549H148.697Z" fill="white"></path><path d="M142.3 31.0035L142.36 31.1045H144.498C144.59 31.1045 144.663 31.0305 144.663 30.9393V13.92C144.663 13.8288 144.59 13.7549 144.498 13.7549H141.929V25.7704C141.483 25.0602 140.965 24.2784 140.375 23.4251C139.624 22.3147 138.816 21.1882 137.951 20.0457C137.102 18.8869 136.237 17.7688 135.355 16.6914C134.489 15.5967 133.671 14.6394 132.901 13.8199L132.84 13.7549H130.827C130.736 13.7549 130.662 13.8288 130.662 13.92V30.9393C130.662 31.0305 130.736 31.1045 130.827 31.1045H133.397V18.2327C133.748 18.6476 134.122 19.1074 134.519 19.6123C135.055 20.2944 135.607 21.0256 136.176 21.8059L136.177 21.8067L136.177 21.8076C136.746 22.5711 137.315 23.3673 137.884 24.1962L137.884 24.1973L137.885 24.1984C138.471 25.0277 139.031 25.8487 139.568 26.6615L139.568 26.6623L139.569 26.6631C140.105 27.4591 140.6 28.2303 141.055 28.9769L141.055 28.9783L141.056 28.9796C141.528 29.728 141.943 30.4026 142.3 31.0035Z" fill="white"></path><path d="M127.3 14.1004L127.363 14.0313C127.46 13.9253 127.385 13.7549 127.241 13.7549H124.194L124.132 13.8265C123.727 14.2958 123.225 14.8472 122.623 15.4811L122.623 15.4812C122.037 16.0996 121.411 16.7505 120.743 17.4342C120.076 18.1176 119.401 18.8011 118.717 19.4845C118.171 20.0182 117.661 20.51 117.187 20.9601V13.7549H114.569C114.478 13.7549 114.404 13.8288 114.404 13.92V30.9393C114.404 31.0305 114.478 31.1045 114.569 31.1045H117.187V23.2337C117.762 23.61 118.349 24.0503 118.95 24.5551L118.95 24.5558L118.951 24.5565C119.678 25.1544 120.39 25.8091 121.086 26.521L121.087 26.5227L121.089 26.5243C121.8 27.2194 122.471 27.9549 123.101 28.7309L123.102 28.7317L123.103 28.7325C123.733 29.4923 124.29 30.2512 124.774 31.0091L124.835 31.1045H127.805C127.932 31.1045 128.012 30.9672 127.949 30.857L127.913 30.7952C127.467 30.0193 126.908 29.2048 126.235 28.3517C125.58 27.4998 124.876 26.6645 124.122 25.8459C123.369 25.0271 122.599 24.2572 121.813 23.5361C121.1 22.8831 120.419 22.3223 119.771 21.8547C120.323 21.3161 120.908 20.7376 121.526 20.1195C122.211 19.4346 122.896 18.7416 123.58 18.0404C124.282 17.3229 124.95 16.6298 125.586 15.961L125.587 15.9601L125.588 15.9592C126.224 15.2746 126.795 14.655 127.3 14.1004Z" fill="white"></path><path fill-rule="evenodd" clip-rule="evenodd" d="M98.6029 13.6244C98.5117 13.6244 98.4377 13.6984 98.4377 13.7896V30.9493C98.4377 31.0405 98.5117 31.1145 98.6029 31.1145H100.962V24.8054H104.407C104.795 25.2695 105.173 25.7551 105.542 26.2622L105.543 26.2642L105.544 26.266C106.147 27.0568 106.705 27.8816 107.216 28.7407L107.217 28.7417L107.217 28.7426C107.681 29.5028 108.085 30.2537 108.43 30.9952L108.486 31.1145H111.277C111.397 31.1145 111.477 30.9913 111.427 30.8824C111.106 30.179 110.758 29.4903 110.372 28.8192C109.847 27.8814 109.271 26.953 108.644 26.034C108.286 25.5087 107.92 24.9984 107.547 24.5032C108.588 24.1849 109.412 23.6093 110.007 22.7739L110.008 22.7732C110.723 21.7621 111.077 20.573 111.077 19.2148C111.077 18.2815 110.915 17.4275 110.587 16.6559C110.257 15.873 109.761 15.2238 109.101 14.7116C108.444 14.1966 107.636 13.869 106.684 13.7221C106.462 13.6811 106.232 13.6566 105.996 13.6483C105.765 13.6324 105.563 13.6243 105.392 13.6243C104.668 13.6243 103.945 13.6242 103.221 13.6242L103.221 13.6242C101.682 13.624 100.142 13.6239 98.6029 13.6244ZM108.506 19.2148C108.506 19.6656 108.431 20.1092 108.28 20.5464C108.133 20.9663 107.898 21.3344 107.572 21.6524C107.264 21.9536 106.857 22.1672 106.342 22.2867C106.179 22.3238 106.003 22.3501 105.814 22.3652L105.814 22.3652L105.814 22.3652C105.628 22.3807 105.464 22.3882 105.321 22.3882H100.962V16.0414H105.321C105.464 16.0414 105.628 16.049 105.814 16.0644L105.818 16.0648L105.823 16.065C106.006 16.0723 106.176 16.0979 106.334 16.1409L106.339 16.1423L106.344 16.1434C106.858 16.255 107.263 16.4678 107.57 16.7755L107.571 16.7764L107.572 16.7772C107.897 17.0948 108.133 17.4665 108.28 17.8946L108.28 17.8951L108.281 17.8957C108.431 18.3245 108.506 18.7639 108.506 19.2148Z" fill="white"></path><path fill-rule="evenodd" clip-rule="evenodd" d="M92.2447 28.814L92.2449 28.8146L92.2452 28.8153C92.4902 29.5177 92.7515 30.2362 93.029 30.971L93.0795 31.1045H95.8717C95.9864 31.1045 96.0661 30.9906 96.0269 30.8829C95.417 29.2071 94.8013 27.5335 94.1732 25.8645C93.6025 24.3318 93.0399 22.8803 92.4853 21.5101C91.947 20.1399 91.4085 18.8346 90.87 17.5943C90.3297 16.3337 89.7612 15.0856 89.169 13.8486C89.1415 13.7913 89.0836 13.7549 89.0201 13.7549H86.793C86.7295 13.7549 86.6716 13.7913 86.6442 13.8486C86.0519 15.0856 85.4834 16.3337 84.9431 17.5944C84.4047 18.8342 83.8583 20.1391 83.3038 21.5091L83.3034 21.51L83.303 21.511C82.7649 22.8808 82.2105 24.3319 81.6399 25.8644C81.0118 27.5334 80.3961 29.2071 79.7862 30.8829C79.747 30.9906 79.8268 31.1045 79.9414 31.1045H82.6144L82.6144 31.1043H82.6667L82.728 31.0386C83.3728 30.3463 84.0935 29.6669 84.8904 29.0006L84.8912 28.9999L84.892 28.9992C85.692 28.3161 86.5261 27.6826 87.3943 27.0987L87.3962 27.0973L87.3982 27.096C88.2534 26.4917 89.1141 25.9495 89.9802 25.4691L89.9812 25.4686L89.9822 25.468C90.2941 25.2905 90.6012 25.1251 90.9036 24.9718L91.4878 26.6408L91.4882 26.6421L91.4883 26.6422C91.7485 27.3743 92.0007 28.0982 92.2447 28.814ZM89.2409 20.5842L89.2415 20.5856L89.242 20.587C89.4772 21.1824 89.7124 21.7877 89.9477 22.4031C89.93 22.4108 89.9121 22.4189 89.8939 22.4272C89.0662 22.8041 88.1767 23.2914 87.2254 23.888C86.3147 24.4592 85.4113 25.0797 84.5151 25.7496L84.8945 24.6658C85.3966 23.2573 85.8986 21.8972 86.4006 20.5856C86.8622 19.4027 87.3429 18.265 87.8427 17.1723C88.3278 18.2645 88.7939 19.4018 89.2409 20.5842Z" fill="white"></path><path d="M80.4678 16.2207V13.92C80.4678 13.8288 80.3939 13.7549 80.3027 13.7549H67.1937C67.1025 13.7549 67.0286 13.8288 67.0286 13.92V16.2207H72.3564V30.9393C72.3564 31.0305 72.4304 31.1045 72.5216 31.1045H74.9748C75.066 31.1045 75.14 31.0305 75.14 30.9393V16.2207H80.4678Z" fill="white"></path><path d="M55.0002 30.8935L54.9997 30.8933C53.99 30.4629 53.1502 29.8485 52.4844 29.0496L52.4834 29.0484L52.4829 29.0478C51.8238 28.2384 51.3958 27.2845 51.1969 26.1909C51.187 26.1362 51.1995 26.0798 51.2317 26.0345C51.2639 25.9891 51.313 25.9587 51.3679 25.95L53.5883 25.6001C53.6934 25.5835 53.7939 25.6495 53.8204 25.7526C54.0902 26.801 54.6456 27.6148 55.4878 28.2046C56.3423 28.7894 57.3501 29.085 58.5198 29.085C59.2785 29.085 59.9566 28.9678 60.5568 28.737C61.164 28.4987 61.6353 28.1643 61.9794 27.7379C62.3178 27.3185 62.4887 26.822 62.4887 26.2384C62.4887 25.8761 62.4245 25.5796 62.3053 25.3412L62.3022 25.3347C62.1862 25.0808 62.0241 24.8688 61.8153 24.696L61.8095 24.6909C61.5999 24.5038 61.3593 24.3456 61.0865 24.2168C60.8074 24.085 60.5165 23.9764 60.2135 23.8909L60.2108 23.8901L55.7815 22.5746C55.2885 22.4267 54.8118 22.2418 54.3514 22.0198L54.3501 22.0192L54.3487 22.0185C53.8813 21.7848 53.4626 21.4961 53.0936 21.1522L53.0924 21.1511L53.0918 21.1505C52.7176 20.7934 52.4208 20.3688 52.2012 19.8789L52.2007 19.8777C51.9775 19.3713 51.8694 18.7826 51.8694 18.1171C51.8694 17.0501 52.1452 16.1288 52.7058 15.3643L52.706 15.364C53.2692 14.5991 54.0283 14.0179 54.9764 13.6187C55.923 13.2202 56.9851 13.0272 58.1592 13.0354C59.3494 13.0436 60.4197 13.2571 61.3666 13.6805C62.3206 14.0954 63.112 14.6946 63.737 15.4777C64.3714 16.2625 64.7945 17.199 65.0094 18.282C65.0203 18.3366 65.0086 18.3931 64.9772 18.439C64.9458 18.4848 64.8972 18.516 64.8424 18.5256L62.5617 18.9238C62.5076 18.9333 62.452 18.9208 62.4071 18.8891C62.3623 18.8575 62.3319 18.8093 62.3227 18.7551C62.2075 18.0794 61.9517 17.5062 61.5585 17.0297L61.5562 17.0269C61.1673 16.5389 60.6795 16.165 60.0897 15.9045L60.0876 15.9036C59.4965 15.6349 58.8454 15.4955 58.1314 15.4877L58.1313 15.4877C57.4469 15.4799 56.8352 15.5888 56.293 15.8103C55.7493 16.0324 55.3249 16.3389 55.0119 16.7263L55.0107 16.7278C54.7037 17.1006 54.551 17.5287 54.551 18.0205C54.551 18.5089 54.6901 18.8857 54.9536 19.1705C55.2381 19.4697 55.5878 19.7112 56.0059 19.8939C56.4491 20.0759 56.8794 20.2258 57.2969 20.344L57.2979 20.3443L60.6032 21.2973C60.9886 21.4039 61.4286 21.5507 61.9227 21.737C62.4399 21.9289 62.9386 22.1993 63.4187 22.5469C63.9128 22.8964 64.3186 23.3632 64.6375 23.9419C64.965 24.5283 65.122 25.2574 65.122 26.1178C65.122 26.9825 64.9473 27.7597 64.5924 28.4444C64.2479 29.1247 63.7644 29.6961 63.1441 30.1571L63.1427 30.1582C62.5259 30.6082 61.8118 30.948 61.0031 31.1791C60.1942 31.4184 59.3299 31.5373 58.4112 31.5373C57.1567 31.5373 56.0186 31.3241 55.0002 30.8935Z" fill="white"></path><defs><linearGradient id="paint0_linear_789_81084" x1="41.0273" y1="7.78336" x2="-31.8733" y2="14.6192" gradientUnits="userSpaceOnUse"><stop stop-color="#EC796B"></stop><stop offset="1" stop-color="#D672EF"></stop></linearGradient><linearGradient id="paint1_linear_789_81084" x1="36.2758" y1="15.6122" x2="-15.7509" y2="42.6807" gradientUnits="userSpaceOnUse"><stop stop-color="#EC796B"></stop><stop offset="1" stop-color="#D672EF"></stop></linearGradient><linearGradient id="paint2_linear_789_81084" x1="33.4642" y1="28.8471" x2="25.1613" y2="29.6254" gradientUnits="userSpaceOnUse"><stop stop-color="#EC796B"></stop><stop offset="1" stop-color="#D672EF"></stop></linearGradient></defs></svg>

<svg height="40" viewBox="0 0 179 43" fill="none" xmlns="http://www.w3.org/2000/svg"><path d="M21.04 42.32C9.716 42.32.536 33.139.536 21.814c0-11.326 9.18-20.507 20.506-20.507 11.325 0 20.507 9.181 20.507 20.507 0 11.325-9.182 20.506-20.507 20.506z" fill="#0C0C4F" stroke="url(#paint0_linear_789_81084)" stroke-width="1.013"/><path fill-rule="evenodd" clip-rule="evenodd" d="M12.22 17.101l.493-1.525c.1-.31.345-.552.657-.647l1.533-.471c.212-.065.213-.364.003-.432l-1.526-.494a.999.999 0 01-.647-.657l-.47-1.533a.227.227 0 00-.433-.002l-.494 1.525a.999.999 0 01-.656.647l-1.533.47a.227.227 0 00-.003.433l1.526.494a1 1 0 01.646.657l.471 1.532a.227.227 0 00.432.003z" fill="#FAFAFA"/><path fill-rule="evenodd" clip-rule="evenodd" d="M36.446 16.213c-.632-.706-1.618-1.104-2.577-1.267a8.857 8.857 0 00-2.933.027c-1.93.327-3.685 1.126-5.214 2.112-.794.484-1.472 1.044-2.174 1.614-.338.288-.646.596-.967.898l-.877.873c-.954.997-1.893 1.904-2.802 2.657-.913.748-1.766 1.317-2.607 1.714-.84.4-1.74.634-2.912.672-1.162.04-2.537-.17-4.007-.515-1.478-.345-3.03-.836-4.765-1.259.605 1.68 1.516 3.163 2.687 4.52 1.184 1.333 2.662 2.548 4.561 3.347 1.872.816 4.224 1.11 6.423.667 2.206-.424 4.14-1.445 5.705-2.625 1.568-1.192 2.837-2.55 3.907-3.962a27.4 27.4 0 00.665-.913l.59-.875c.41-.541.784-1.157 1.19-1.693.797-1.123 1.582-2.245 2.495-3.278a13.94 13.94 0 011.515-1.507 7.99 7.99 0 01.934-.673 4.43 4.43 0 011.163-.534z" fill="url(#paint1_linear_789_81084)"/><path fill-rule="evenodd" clip-rule="evenodd" d="M36.446 16.213c-.679-1.713-1.94-3.155-3.634-4.219-1.684-1.052-4.022-1.589-6.34-1.131a10.382 10.382 0 00-3.227 1.215 13.495 13.495 0 00-2.588 1.976 20.29 20.29 0 00-1.054 1.133l-.877 1.118-1.355 1.8c-1.726 2.315-3.586 5.029-6.637 5.833-2.996.79-4.295.09-6.123-.198.334.863.748 1.7 1.31 2.438a9.687 9.687 0 002.01 2.065c.41.29.84.578 1.32.821.477.235.992.442 1.541.598 1.093.3 2.323.405 3.514.244a10.569 10.569 0 003.327-1.039 14.005 14.005 0 002.656-1.74c1.551-1.288 2.757-2.71 3.776-4.15a28.91 28.91 0 001.408-2.184l.507-.872c.154-.256.311-.512.47-.751.642-.96 1.27-1.73 2.032-2.308.752-.593 1.798-1.031 3.197-1.133 1.393-.103 3.001.087 4.767.484z" fill="#FAFAFA"/><path fill-rule="evenodd" clip-rule="evenodd" d="M28.91 30.445a2.279 2.279 0 104.558 0 2.279 2.279 0 00-4.558 0z" fill="url(#paint2_linear_789_81084)"/><path d="M175.837 16.22v-2.3a.165.165 0 00-.165-.165h-13.109a.165.165 0 00-.165.165v2.3h5.328v14.885h2.783V16.22h5.328zm-27.14-2.465a.165.165 0 00-.165.165v17.02c0 .09.074.165.165.165h11.031a.165.165 0 00.166-.166v-2.276h-8.579V23.21h7.088v-2.392h-7.088v-4.622h7.968V13.92a.165.165 0 00-.166-.165h-10.42zM142.3 31.003l.06.102h2.138a.165.165 0 00.165-.166V13.92a.164.164 0 00-.165-.165h-2.569V25.77a64.182 64.182 0 00-1.554-2.345 77.982 77.982 0 00-2.424-3.38 79.001 79.001 0 00-2.596-3.354 44.836 44.836 0 00-2.454-2.871l-.061-.065h-2.013a.165.165 0 00-.165.165v17.02c0 .09.074.165.165.165h2.57V18.233c.351.415.725.874 1.122 1.38a76.62 76.62 0 011.657 2.193h.001v.002a75.55 75.55 0 011.707 2.388v.001l.001.001a95.23 95.23 0 011.683 2.463v.001l.001.001a60.772 60.772 0 011.486 2.314v.001l.001.002a90.42 90.42 0 011.244 2.023zm-15-16.903l.063-.069a.165.165 0 00-.122-.276h-3.047l-.062.071a47.91 47.91 0 01-1.509 1.655 229.028 229.028 0 01-3.906 4.003 147.55 147.55 0 01-1.53 1.476v-7.205h-2.618a.165.165 0 00-.165.165v17.02c0 .09.074.165.165.165h2.618v-7.871c.575.376 1.162.816 1.763 1.321l.001.002a26.767 26.767 0 012.135 1.964l.001.002.002.001a25.85 25.85 0 012.012 2.207h.001l.001.002a22.82 22.82 0 011.671 2.276l.061.096h2.97a.166.166 0 00.144-.248l-.036-.062a20.4 20.4 0 00-1.678-2.443 38.489 38.489 0 00-4.422-4.816 22.876 22.876 0 00-2.042-1.681 234.01 234.01 0 005.815-5.894h.001l.001-.002c.636-.684 1.207-1.304 1.712-1.859z" fill="#fff"/><path fill-rule="evenodd" clip-rule="evenodd" d="M98.603 13.624a.165.165 0 00-.165.166v17.16c0 .09.074.165.165.165h2.359v-6.31h3.445c.388.465.766.95 1.135 1.457l.001.002.001.002c.603.79 1.161 1.616 1.672 2.475h.001v.002c.464.76.868 1.51 1.213 2.252l.056.12h2.791c.12 0 .2-.124.15-.233a24.676 24.676 0 00-1.055-2.063 37.093 37.093 0 00-1.728-2.785 39.776 39.776 0 00-1.097-1.53c1.041-.32 1.865-.895 2.46-1.73h.001c.715-1.012 1.069-2.201 1.069-3.56 0-.932-.162-1.787-.49-2.558a4.76 4.76 0 00-1.486-1.944c-.657-.515-1.465-.843-2.417-.99a4.699 4.699 0 00-.688-.074 8.97 8.97 0 00-.604-.024h-6.789zm9.903 5.59c0 .452-.075.895-.226 1.332-.147.42-.382.788-.708 1.106-.308.302-.715.515-1.23.635a3.714 3.714 0 01-.528.078 6 6 0 01-.493.023h-4.359v-6.347h4.359c.143 0 .307.008.493.023h.004l.005.001c.183.007.353.033.511.076l.005.001.005.001c.514.112.919.325 1.226.633h.001l.001.001c.325.318.561.69.708 1.118h.001c.15.43.225.869.225 1.32zm-16.261 9.6v.001c.245.703.506 1.421.784 2.156l.05.134h2.793a.165.165 0 00.155-.222c-.61-1.676-1.226-3.35-1.854-5.018a166.185 166.185 0 00-1.688-4.355 120.245 120.245 0 00-1.615-3.916 98.956 98.956 0 00-1.701-3.745.165.165 0 00-.149-.094h-2.227a.165.165 0 00-.149.094 98.733 98.733 0 00-1.7 3.745 169.337 169.337 0 00-1.64 3.915v.001l-.001.001c-.538 1.37-1.093 2.82-1.663 4.353a491.056 491.056 0 00-1.854 5.019.165.165 0 00.155.222h2.726l.061-.066A23.891 23.891 0 0184.89 29l.001-.001h.001c.8-.684 1.634-1.317 2.502-1.901l.002-.002.002-.001a28.076 28.076 0 012.582-1.627h.001l.001-.001c.312-.177.62-.343.922-.496l.584 1.669v.001c.26.732.513 1.456.757 2.172zm-3.004-8.23v.002l.001.001c.235.595.47 1.2.706 1.816a23.093 23.093 0 00-2.722 1.485 40.248 40.248 0 00-2.71 1.862l.378-1.084a188.4 188.4 0 011.507-4.08 65.11 65.11 0 011.442-3.414c.485 1.093.95 2.23 1.398 3.412z" fill="#fff"/><path d="M80.468 16.22v-2.3a.165.165 0 00-.165-.165h-13.11a.165.165 0 00-.164.165v2.3h5.327v14.72c0 .09.074.165.166.165h2.453a.165.165 0 00.165-.166V16.221h5.328zM55 30.893c-1.01-.43-1.85-1.044-2.516-1.843v-.002h-.001c-.66-.81-1.087-1.763-1.286-2.857a.206.206 0 01.17-.241l2.221-.35a.206.206 0 01.232.153c.27 1.048.826 1.862 1.668 2.452.854.584 1.862.88 3.032.88.758 0 1.437-.117 2.037-.348.607-.238 1.078-.573 1.422-1 .339-.418.51-.915.51-1.499 0-.362-.064-.658-.184-.897l-.003-.006a1.771 1.771 0 00-.487-.639l-.005-.005a3.002 3.002 0 00-.724-.474 5.658 5.658 0 00-.872-.326h-.003l-4.43-1.316a9.713 9.713 0 01-1.43-.555l-.002-.002a5.316 5.316 0 01-1.255-.866h-.002v-.002a3.999 3.999 0 01-.89-1.271l-.001-.001c-.224-.507-.332-1.095-.332-1.76 0-1.068.276-1.99.837-2.754.563-.765 1.322-1.346 2.27-1.745.947-.399 2.01-.592 3.183-.584 1.19.009 2.26.222 3.208.646a6.085 6.085 0 012.37 1.797c.634.784 1.057 1.721 1.272 2.804a.206.206 0 01-.167.244l-2.28.398a.206.206 0 01-.24-.169c-.114-.676-.37-1.249-.764-1.725l-.002-.003a3.811 3.811 0 00-1.466-1.123h-.002a4.799 4.799 0 00-1.957-.416c-.684-.008-1.296.1-1.838.322-.544.222-.968.529-1.281.916l-.001.002c-.307.373-.46.8-.46 1.292 0 .489.14.866.403 1.15.284.3.634.541 1.052.724.443.182.873.332 1.29.45h.002l3.305.953c.386.107.826.254 1.32.44a6.267 6.267 0 011.496.81c.494.35.9.816 1.219 1.395.327.586.484 1.315.484 2.176 0 .865-.175 1.642-.53 2.326a4.827 4.827 0 01-1.448 1.713l-.001.001c-.617.45-1.331.79-2.14 1.021a9.096 9.096 0 01-2.592.358c-1.254 0-2.392-.213-3.41-.643z" fill="#fff"/><defs><linearGradient id="paint0_linear_789_81084" x1="41.027" y1="7.783" x2="-31.873" y2="14.619" gradientUnits="userSpaceOnUse"><stop stop-color="#EC796B"/><stop offset="1" stop-color="#D672EF"/></linearGradient><linearGradient id="paint1_linear_789_81084" x1="36.276" y1="15.612" x2="-15.751" y2="42.681" gradientUnits="userSpaceOnUse"><stop stop-color="#EC796B"/><stop offset="1" stop-color="#D672EF"/></linearGradient><linearGradient id="paint2_linear_789_81084" x1="33.464" y1="28.847" x2="25.161" y2="29.625" gradientUnits="userSpaceOnUse"><stop stop-color="#EC796B"/><stop offset="1" stop-color="#D672EF"/></linearGradient></defs></svg>
